COLOR/mimes 16/16/application-x-flash-video.svg

<svg height="16" viewBox="0 0 4.233125 4.233125" width="16" xmlns="http://www.w3.org/2000/svg" xmlns:xlink="http://www.w3.org/1999/xlink"><linearGradient id="a" gradientUnits="userSpaceOnUse" x1="328" x2="328" y1="237" y2="251"><stop offset="0" stop-color="#fff"/><stop offset=".125" stop-color="#fff" stop-opacity=".098039"/><stop offset=".92500001" stop-color="#fff" stop-opacity=".098039"/><stop offset="1" stop-color="#fff" stop-opacity=".498039"/></linearGradient><clipPath id="b"><path d="m325.09646 237c-2.80769 0-3.10979.28839-3.09603 3.10176v3.89824 3.89824c-.0138 2.81337.28834 3.10176 3.09603 3.10176h5.8075c2.8077 0 3.09604-.28835 3.09604-3.10176v-3.89824-3.89824c0-2.8134-.28835-3.10176-3.09604-3.10176z"/></clipPath><linearGradient id="c" gradientTransform="matrix(0 -.00953618 .00953591 0 -.942983 4.47364)" gradientUnits="userSpaceOnUse" x1="459.03448" x2="35.310345" y1="419.23337" y2="207.36522"><stop offset="0" stop-color="#f2f2f2"/><stop offset="1" stop-color="#f9f9f9"/></linearGradient><path d="m1.3483196.264567c-.190237 0-.344431.0037-.48573304.02739-.141304.02373-.28264.07309-.390656.180857-.108014.10776-.157835.249551-.181374.39117-.02355.141622-.02677.296446-.02585.487286v.765291 1.031411c-.000794.190004.0024.344563.02585.485735.02355.14162.07336.283411.181374.39117.108016.107762.249352.157139.390656.180858.14130204.02373.29549604.02739.48573304.02739h1.536783c.190237 0 .344095-.0036.485217-.02739.141124-.02376.282476-.07353.390138-.181374.107661-.107844.157165-.249413.180857-.390654.0237-.141243.02739-.29513.02739-.485735v-1.031411-.766842c0-.190604-.0037-.344491-.02739-.485735-.02368-.141241-.0732-.28281-.180858-.390654-.107662-.107844-.249014-.157625-.390138-.181373-.141122-.02375-.29498-.02739-.485217-.02739z" opacity=".1"/><path d="m1.3485206.264567c-.74283104 0-.82275804.0763-.81911804.820634v1.031359 1.031358c-.0037.744334.07629.820634.81911804.820634h1.536492c.742834 0 .81912-.07629.81912-.820634v-1.031358-1.031359c0-.744342-.07629-.820634-.81912-.820634z" fill="none" opacity=".2" stroke="#000" stroke-width=".529141"/><path d="m1.3485206.264567c-.74283104 0-.82275804.0763-.81911804.820634v1.031359 1.031358c-.0037.744334.07629.820634.81911804.820634h1.536492c.742834 0 .81912-.07629.81912-.820634v-1.031358-1.031359c0-.744342-.07629-.820634-.81912-.820634z" fill="url(#c)"/><path clip-path="url(#b)" d="m325.09646 237c-2.80769 0-3.10979.28839-3.09603 3.10176v3.89824 3.89824c-.0138 2.81337.28834 3.10176 3.09603 3.10176h5.8075c2.8077 0 3.09604-.28835 3.09604-3.10176v-3.89824-3.89824c0-2.8134-.28835-3.10176-3.09604-3.10176z" fill="none" opacity=".4" stroke="url(#a)" stroke-width="2" transform="matrix(.26457031 0 0 .26457031 -84.66235 -62.438597)"/><path d="m1.0461622 2.9002025v.5352781s.8808356.1245228 1.2685507-1.0283687c.025702 0 .7078484-.0008093.7078484-.0008093v-.4941022h-.4940998s.1832722-.6176217.6587992-.6176217v-.49410223s-.7400066-.15802691-1.215455 1.05296253c-.4111986 1.1859506-.9256435 1.0468849-.9256435 1.0468849z" fill="#cd3436" stroke-width=".083332"/><g fill="#fff"><path d="m2.1167106.264567v3.703985h.768392c.742834 0 .81903-.07624.81903-.820581v-1.031411-1.031412c0-.744342-.0762-.820581-.81903-.820581z" opacity=".2"/><path d="m.52928956 2.11656v1.031411c-.0037.744334.0762.820581.81903004.820581h1.536783c.742834 0 .81903-.07624.81903-.820581v-1.031411z" opacity=".2"/></g></svg>

<?xml version="1.0" encoding="UTF-8" standalone="no"?>
<svg
   xmlns:dc="http://purl.org/dc/elements/1.1/"
   xmlns:cc="http://creativecommons.org/ns#"
   xmlns:rdf="http://www.w3.org/1999/02/22-rdf-syntax-ns#"
   xmlns:svg="http://www.w3.org/2000/svg"
   xmlns="http://www.w3.org/2000/svg"
   xmlns:xlink="http://www.w3.org/1999/xlink"
   xmlns:sodipodi="http://sodipodi.sourceforge.net/DTD/sodipodi-0.dtd"
   xmlns:inkscape="http://www.inkscape.org/namespaces/inkscape"
   width="16"
   height="16"
   version="1.1"
   viewBox="0 0 4.233125 4.233125"
   id="svg53"
   sodipodi:docname="application-x-flash-video.svg"
   inkscape:version="0.92.4 (5da689c313, 2019-01-14)">
  <metadata
     id="metadata57">
    <rdf:RDF>
      <cc:Work
         rdf:about="">
        <dc:format>image/svg+xml</dc:format>
        <dc:type
           rdf:resource="http://purl.org/dc/dcmitype/StillImage" />
        <dc:title></dc:title>
      </cc:Work>
    </rdf:RDF>
  </metadata>
  <sodipodi:namedview
     pagecolor="#ffffff"
     bordercolor="#666666"
     borderopacity="1"
     objecttolerance="10"
     gridtolerance="10"
     guidetolerance="10"
     inkscape:pageopacity="0"
     inkscape:pageshadow="2"
     inkscape:window-width="1249"
     inkscape:window-height="767"
     id="namedview55"
     showgrid="false"
     inkscape:zoom="36.874971"
     inkscape:cx="7.9731646"
     inkscape:cy="8.0000063"
     inkscape:window-x="0"
     inkscape:window-y="27"
     inkscape:window-maximized="0"
     inkscape:current-layer="svg53" />
  <defs
     id="defs17">
    <linearGradient
       id="linearGradient4226"
       x1="529.65503"
       x2="-35.310001"
       y1="401.58401"
       y2="119.093"
       gradientTransform="matrix(0,0.11988932,0.11988589,0,0.36278005,233.28165)"
       gradientUnits="userSpaceOnUse">
      <stop
         style="stop-color:#f2f2f2"
         offset="0"
         id="stop2" />
      <stop
         style="stop-color:#f9f9f9"
         offset="1"
         id="stop4" />
    </linearGradient>
    <linearGradient
       id="linearGradient4358"
       x1="88"
       x2="488"
       y1="88"
       y2="488"
       gradientUnits="userSpaceOnUse">
      <stop
         style="stop-color:#000000;stop-opacity:.58823532"
         offset="0"
         id="stop7" />
      <stop
         style="stop-color:#000000;stop-opacity:0"
         offset=".88"
         id="stop9" />
      <stop
         style="stop-color:#000000"
         offset="1"
         id="stop11" />
    </linearGradient>
    <filter
       id="filter4346"
       width="1.026"
       height="1.022"
       x="-0.0099999998"
       y="-0.0099999998"
       style="color-interpolation-filters:sRGB">
      <feGaussianBlur
         stdDeviation="2.12"
         id="feGaussianBlur14" />
    </filter>
    <linearGradient
       inkscape:collect="always"
       xlink:href="#linearGradient927"
       id="linearGradient993"
       x1="328"
       y1="237"
       x2="328"
       y2="251"
       gradientUnits="userSpaceOnUse" />
    <linearGradient
       inkscape:collect="always"
       id="linearGradient927">
      <stop
         style="stop-color:#ffffff;stop-opacity:1;"
         offset="0"
         id="stop923" />
      <stop
         id="stop933"
         offset="0.125"
         style="stop-color:#ffffff;stop-opacity:0.09803922" />
      <stop
         id="stop931"
         offset="0.92500001"
         style="stop-color:#ffffff;stop-opacity:0.09803922" />
      <stop
         style="stop-color:#ffffff;stop-opacity:0.49803922"
         offset="1"
         id="stop925" />
    </linearGradient>
    <clipPath
       clipPathUnits="userSpaceOnUse"
       id="clipPath983">
      <path
         sodipodi:nodetypes="scccssscsss"
         inkscape:connector-curvature="0"
         id="path985"
         d="m 325.09646,237 c -2.80769,0 -3.10979,0.28839 -3.09603,3.10176 V 244 v 3.89824 c -0.0138,2.81337 0.28834,3.10176 3.09603,3.10176 h 5.8075 C 333.71166,251 334,250.71165 334,247.89824 V 244 240.10176 C 334,237.28836 333.71165,237 330.90396,237 Z"
         style="color:#000000;display:inline;overflow:visible;visibility:visible;opacity:1;fill:#46a926;fill-opacity:1;fill-rule:nonzero;stroke:none;stroke-width:2;stroke-miterlimit:4;stroke-dasharray:none;stroke-opacity:1;marker:none;enable-background:accumulate" />
    </clipPath>
    <linearGradient
       inkscape:collect="always"
       xlink:href="#linearGradient4338"
       id="linearGradient920"
       gradientUnits="userSpaceOnUse"
       gradientTransform="matrix(0,-0.00953618,0.00953591,0,-0.94298344,4.47364)"
       x1="459.03448"
       y1="419.23337"
       x2="35.310345"
       y2="207.36522" />
    <linearGradient
       inkscape:collect="always"
       id="linearGradient4338">
      <stop
         style="stop-color:#f2f2f2;stop-opacity:1"
         offset="0"
         id="stop4340" />
      <stop
         style="stop-color:#f9f9f9;stop-opacity:1"
         offset="1"
         id="stop4342" />
    </linearGradient>
  </defs>
  <path
     style="color:#000000;font-style:normal;font-variant:normal;font-weight:normal;font-stretch:normal;font-size:medium;line-height:normal;font-family:sans-serif;font-variant-ligatures:normal;font-variant-position:normal;font-variant-caps:normal;font-variant-numeric:normal;font-variant-alternates:normal;font-feature-settings:normal;text-indent:0;text-align:start;text-decoration:none;text-decoration-line:none;text-decoration-style:solid;text-decoration-color:#000000;letter-spacing:normal;word-spacing:normal;text-transform:none;writing-mode:lr-tb;direction:ltr;text-orientation:mixed;dominant-baseline:auto;baseline-shift:baseline;text-anchor:start;white-space:normal;shape-padding:0;clip-rule:nonzero;display:inline;overflow:visible;visibility:visible;opacity:0.1;isolation:auto;mix-blend-mode:normal;color-interpolation:sRGB;color-interpolation-filters:linearRGB;solid-color:#000000;solid-opacity:1;vector-effect:none;fill:#000000;fill-opacity:1;fill-rule:nonzero;stroke:none;stroke-width:0.52914065;stroke-linecap:butt;stroke-linejoin:miter;stroke-miterlimit:4;stroke-dasharray:none;stroke-dashoffset:0;stroke-opacity:1;marker:none;color-rendering:auto;image-rendering:auto;shape-rendering:auto;text-rendering:auto;enable-background:accumulate"
     d="m 1.3483196,0.264567 c -0.190237,0 -0.344431,0.0037 -0.48573304,0.02739 -0.141304,0.02373 -0.28264,0.07309 -0.390656,0.180857 -0.108014,0.10776 -0.157835,0.249551 -0.181374,0.39117 -0.02355,0.141622 -0.02677,0.296446 -0.02585,0.487286 v 0.765291 1.031411 c -7.94e-4,0.190004 0.0024,0.344563 0.02585,0.485735 0.02355,0.14162 0.07336,0.283411 0.181374,0.39117 0.108016,0.107762 0.249352,0.157139 0.390656,0.180858 0.14130204,0.02373 0.29549604,0.02739 0.48573304,0.02739 h 1.536783 c 0.190237,0 0.344095,-0.0036 0.485217,-0.02739 0.141124,-0.02376 0.282476,-0.07353 0.390138,-0.181374 0.107661,-0.107844 0.157165,-0.249413 0.180857,-0.390654 0.0237,-0.141243 0.02739,-0.29513 0.02739,-0.485735 V 2.116561 1.349719 c 0,-0.190604 -0.0037,-0.344491 -0.02739,-0.485735 -0.02368,-0.141241 -0.0732,-0.28281 -0.180858,-0.390654 -0.107662,-0.107844 -0.249014,-0.157625 -0.390138,-0.181373 -0.141122,-0.02375 -0.29498,-0.02739 -0.485217,-0.02739 z"
     id="path997"
     inkscape:connector-curvature="0"
     sodipodi:nodetypes="scscccccccsscscscscscss" />
  <path
     sodipodi:nodetypes="scccssscsss"
     inkscape:connector-curvature="0"
     id="path928"
     d="m 1.3485206,0.264567 c -0.74283104,0 -0.82275804,0.0763 -0.81911804,0.820634 V 2.11656 3.147918 c -0.0037,0.744334 0.07629,0.820634 0.81911804,0.820634 h 1.536492 c 0.742834,0 0.81912,-0.07629 0.81912,-0.820634 V 2.11656 1.085201 c 0,-0.744342 -0.07629,-0.820634 -0.81912,-0.820634 z"
     style="color:#000000;display:inline;overflow:visible;visibility:visible;opacity:0.2;fill:none;fill-opacity:1;fill-rule:nonzero;stroke:#000000;stroke-width:0.52914065;stroke-miterlimit:4;stroke-dasharray:none;stroke-opacity:1;marker:none;enable-background:accumulate" />
  <path
     style="color:#000000;display:inline;overflow:visible;visibility:visible;fill:url(#linearGradient920);fill-opacity:1;fill-rule:nonzero;stroke:none;stroke-width:0.26457033;marker:none;enable-background:accumulate"
     d="m 1.3485206,0.264567 c -0.74283104,0 -0.82275804,0.0763 -0.81911804,0.820634 V 2.11656 3.147918 c -0.0037,0.744334 0.07629,0.820634 0.81911804,0.820634 h 1.536492 c 0.742834,0 0.81912,-0.07629 0.81912,-0.820634 V 2.11656 1.085201 c 0,-0.744342 -0.07629,-0.820634 -0.81912,-0.820634 z"
     id="path918"
     inkscape:connector-curvature="0"
     sodipodi:nodetypes="scccssscsss" />
  <path
     transform="matrix(0.26457031,0,0,0.26457031,-84.66235,-62.438597)"
     style="color:#000000;display:inline;overflow:visible;visibility:visible;opacity:0.4;fill:none;fill-opacity:1;fill-rule:nonzero;stroke:url(#linearGradient993);stroke-width:2;stroke-miterlimit:4;stroke-dasharray:none;stroke-opacity:1;marker:none;enable-background:accumulate"
     d="m 325.09646,237 c -2.80769,0 -3.10979,0.28839 -3.09603,3.10176 V 244 v 3.89824 c -0.0138,2.81337 0.28834,3.10176 3.09603,3.10176 h 5.8075 C 333.71166,251 334,250.71165 334,247.89824 V 244 240.10176 C 334,237.28836 333.71165,237 330.90396,237 Z"
     id="path937"
     inkscape:connector-curvature="0"
     sodipodi:nodetypes="scccssscsss"
     clip-path="url(#clipPath983)" />
  <path
     d="m 1.0461622,2.9002025 v 0.5352781 c 0,0 0.8808356,0.1245228 1.2685507,-1.0283687 0.025702,0 0.7078484,-8.093e-4 0.7078484,-8.093e-4 V 1.9122004 H 2.5284615 c 0,0 0.1832722,-0.6176217 0.6587992,-0.6176217 V 0.80047647 c 0,0 -0.7400066,-0.15802691 -1.215455,1.05296253 C 1.5606071,3.0393896 1.0461622,2.9003239 1.0461622,2.9003239 Z"
     style="fill:#cd3436;stroke-width:0.08333194"
     id="path31"
     inkscape:connector-curvature="0" />
  <path
     style="color:#000000;display:inline;overflow:visible;visibility:visible;opacity:0.2;fill:#ffffff;fill-opacity:1;fill-rule:nonzero;stroke:none;stroke-width:0.26457033;marker:none;enable-background:accumulate"
     d="m 2.1167106,0.264567 v 3.703985 h 0.768392 c 0.742834,0 0.81903,-0.07624 0.81903,-0.820581 V 2.11656 1.085148 c 0,-0.744342 -0.0762,-0.820581 -0.81903,-0.820581 z"
     id="path1009"
     inkscape:connector-curvature="0" />
  <path
     style="color:#000000;display:inline;overflow:visible;visibility:visible;opacity:0.2;fill:#ffffff;fill-opacity:1;fill-rule:nonzero;stroke:none;stroke-width:0.26457033;marker:none;enable-background:accumulate"
     d="m 0.52928956,2.11656 v 1.031411 c -0.0037,0.744334 0.0762,0.820581 0.81903004,0.820581 h 1.536783 c 0.742834,0 0.81903,-0.07624 0.81903,-0.820581 V 2.11656 Z"
     id="path1016"
     inkscape:connector-curvature="0" />
</svg>
